!!!COM:	Bach, Johann Sebastian
!!!CDT:	1685/02/21/-1750/07/28/
!!!OTL@@DE:	Jesu, meine Freude
!!!SCT:	BWV 64/8
!!!PC#:	138
!!!AGN:	chorale
**kern	**kern	**kern	**kern
*ICvox	*ICvox	*ICvox	*ICvox
*Ibass	*Itenor	*Ialto	*Isoprn
*I"Bass	*I"Tenor	*I"Alto	*I"Soprano
*>[A,A,B]	*>[A,A,B]	*>[A,A,B]	*>[A,A,B]
*>norep[A,B]	*>norep[A,B]	*>norep[A,B]	*>norep[A,B]
*>A	*>A	*>A	*>A
*clefF4	*clefGv2	*clefG2	*clefG2
*k[f#]	*k[f#]	*k[f#]	*k[f#]
*e:	*e:	*e:	*e:
*M4/4	*M4/4	*M4/4	*M4/4
*met(c)	*met(c)	*met(c)	*met(c)
*MM100	*MM100	*MM100	*MM100
=1-	=1-	=1-	=1-
8EL	4e	4g	4b
8F#J	.	.	.
4G	4d	8gL	4b
.	.	8f#J	.
8CL	4c	4e	4a
8DJ	.	.	.
4E	4B	4e	4g
=2	=2	=2	=2
4AA	4c	4e	2f#
4BB	8BL	4d#	.
.	8AJ	.	.
2E;	2G;	2B;	2e;
=3	=3	=3	=3
8EL	4e	4g	4b
8F#J	.	.	.
4G	4dnX	4g	4b
8F#L	8AL	8aL	4cc#
8GJ	8BJ	8gJ	.
4A	4cnX	4f#	4dd#
=4	=4	=4	=4
4G#	4B	4e	2ee
4A#	4c#	4f#	.
2B;	2B;	2f#;	2dd#;
=5	=5	=5	=5
8GnXL	4B	8gL	4ee
8F#J	.	8aJ	.
4E	4e	4b	4gg
4B	4e	4b	4.ff#
4BB	4d#	4a	.
.	.	.	8ee
=6	=6	=6	=6
1E;	1B;	1g;	1ee;
=7:|!	=7:|!	=7:|!	=7:|!
*>B	*>B	*>B	*>B
8EL	4e	8gL	4b
8F#J	.	8f#J	.
4G	4B	8eL	4b
.	.	8d#J	.
8CL	4A	8eL	4cc
8DnXJ	.	8f#J	.
4E	4G	4g	4b
=8	=8	=8	=8
4C#	4e	4g	4.a
4D	4d	4f#	.
.	.	.	8g
2GG;	2B;	2dnX;	2g;
=9	=9	=9	=9
8GL	4d	4g	4b
8F#J	.	.	.
4E	4e	4g	4cc#
8F#L	4A#	4f#	4dd
8EJ	.	.	.
4D	4B	4f#	4b
=10	=10	=10	=10
4C#	4A#	4g	4ee
8DL	4B	4f#	4dd
8EJ	.	.	.
2F#	4B	4.f#	2cc#
.	4A#	.	.
.	.	8e	.
=11	=11	=11	=11
2BB;	2F#;	2d#;	2b;
8BBL	4G#	8dL	4b
8C#J	.	8eJ	.
4DnX	4G#	4f	4b
=12	=12	=12	=12
8C#L	8AL	8eL	4a
8D#J	8cJ	8f#X	.
4E	4B	8g	4g
.	.	8eJ	.
4AA#	4c#	4e	2f#
4BB	8BL	4d#	.
.	8AJ	.	.
=13	=13	=13	=13
1EE;	1G#;	1B;	1e;
==	==	==	==
*-	*-	*-	*-
!!!hum2abc: -Q ''
!!!title: @{PC#}. @{OTL@@DE}
!!!YOR1: 371 vierstimmige Choralges&auml;nge von Johann Sebastian Bach, 
!!!YOR2: 4th ed. by Alfred D&ouml;rffel (Leipzig: Breitkopf und H&auml;rtel, 
!!!YOR2: c.1875). 178 pp. Plate "V.A.10".  reprint: J.S. Bach, 371 Four-Part 
!!!YOR4: Chorales (New York: Associated Music Publishers, Inc., c.1940).
!!!SMS: B&H, 4th ed, Alfred D&ouml;rffel, c.1875, plate V.A.10
!!!EED:  Craig Stuart Sapp
!!!EEV:  2009/05/22
